pk/link-interrupt.svg

<svg viewBox="0 0 48 48" fill="none" xmlns="http://www.w3.org/2000/svg" height="1em" width="1em">
  <path d="M27 14H42C43.1046 14 44 14.8954 44 16V30C44 31.1046 43.1046 32 42 32H38" stroke="black" stroke-width="4" stroke-linecap="round" stroke-linejoin="round"/>
  <path d="M11 14H6C4.89543 14 4 14.8954 4 16V30C4 31.1046 4.89543 32 6 32H21" stroke="black" stroke-width="4" stroke-linecap="round" stroke-linejoin="round"/>
  <path d="M14 6L34 40" stroke="black" stroke-width="4" stroke-linecap="round" stroke-linejoin="round"/>
  <path d="M32 23H36" stroke="black" stroke-width="4" stroke-linecap="round" stroke-linejoin="round"/>
  <path d="M12 23H16" stroke="black" stroke-width="4" stroke-linecap="round" stroke-linejoin="round"/>
</svg>

<svg viewBox="0 0 48 48" fill="none" xmlns="http://www.w3.org/2000/svg" height="1em" width="1em">
  <path d="M27 14h15a2 2 0 0 1 2 2v14a2 2 0 0 1-2 2h-4M11 14H6a2 2 0 0 0-2 2v14a2 2 0 0 0 2 2h15M14 6l20 34m-2-17h4m-24 0h4" stroke="#000" stroke-width="4" stroke-linecap="round" stroke-linejoin="round"/>
</svg>
